X:331
T:Mr. Murray
R:Strathspey
C:William Martin
S:3 X 32 STRATHSPEY 1,2,1
N:pg.29
M:C
L:1/8
K:A
F| "A"  E<A, C>F E>e d/c/B/A/| "D"  F>D A>F "A"  E>d  c<e|  "A"  E<A, C>E E>e d/c/B/A/|"D"F<A"E7" E>G"A" A2 A>F|!
 "A"  E<A, C>F E>e d/c/B/A/| "D"  F>D A>F "A"  E>d c<e|  "A"  E<A, C>E E>e d/c/B/A/|"D"F<A"E7" E>G"A" A2  A|!
e| "A"a>a g/a/b/g/ ae ce|"D" fA"E"gA "A" ae ce |"A" a<a "E7" g/a/b/g/ "A" ae ce|"D" f>d (3agf "E7" e2 eg|!
"A" a>a "E7" g/a/b/g/ "A" ae ce|"D" fA "E" gA "A"ae ce| "F#m" (3agf "E"(3edc "D" (3fed "A" (3cBA| "D" F>A "E7" E>G "A" A2A||
